X: 275
P: Longways for as many as will
M: C|
L: 1/8
K: Gm
[|\
f2fg c2c2 | g2ga f2fg | d2cd B2B2 | f2fg d2cB | cB AG F2F2 | B2AB c2Bc | d2AB G2G2 |]

